lending/img/lend/advantages_4.svg

<svg width="75" height="49" viewBox="0 0 75 49" fill="none" xmlns="http://www.w3.org/2000/svg">
<path fill-rule="evenodd" clip-rule="evenodd" d="M73.6447 0.685415C74.0816 1.12235 74.328 1.71506 74.3301 2.33329L74.3299 42C74.3278 42.6182 74.0814 43.2109 73.6445 43.6479C73.2075 44.0849 72.6148 44.3313 71.9966 44.3333V46.6667H74.3299V49H67.3299V46.6667H69.6633V44.3333C69.0451 44.3313 68.4524 44.0849 68.0154 43.6479C67.5784 43.211 67.3321 42.6183 67.33 42V6.99992H55.9966V10.0218C56.2721 10.1124 56.5346 10.2379 56.7784 10.3947L61.4451 13.5098C62.4175 14.1557 63.0008 15.2473 62.9967 16.415V35.6671C62.9946 36.2852 62.7482 36.8779 62.3113 37.3149C61.8743 37.7519 61.2816 37.9983 60.6634 38.0003H13.9966C13.3784 37.9983 12.7857 37.7519 12.3487 37.3149C11.9118 36.878 11.6654 36.2853 11.6633 35.6671V16.415C11.6613 15.2415 12.2488 14.1462 13.2269 13.4978L17.8936 10.3947C18.1327 10.2343 18.3915 10.1051 18.6634 10.0098V6.99996H7.33004V42.0001C7.32796 42.6183 7.08156 43.211 6.64463 43.648C6.20769 44.0849 5.61498 44.3313 4.99676 44.3334V46.6667H7.33009V49.0001H0.330078V46.6667H2.66342V44.3334C2.04524 44.3313 1.45252 44.0849 1.01555 43.648C0.578572 43.211 0.332215 42.6183 0.330131 42.0001V2.33329C0.332211 1.71511 0.578612 1.12239 1.01555 0.685415C1.45248 0.248441 2.04519 0.00208334 2.66342 0H4.99676C5.61493 0.00208 6.20765 0.248481 6.64463 0.685415C7.0816 1.12235 7.32796 1.71506 7.33004 2.33329V4.66662H67.3302V2.33329C67.3323 1.71511 67.5787 1.12239 68.0156 0.685415C68.4525 0.248441 69.0452 0.00208334 69.6635 0H71.9968C72.615 0.00208 73.2077 0.248481 73.6447 0.685415ZM2.66326 42.0001H4.9966V2.33329H2.66326V42.0001ZM48.9967 6.99996H53.6634V10.0218C53.391 10.1104 53.1316 10.2359 52.8936 10.3948L51.33 11.4333L49.7784 10.3948C49.5346 10.238 49.2721 10.1125 48.9966 10.0218L48.9967 6.99996ZM46.6634 6.99996H41.9967L41.9966 10.0218C42.2721 10.1125 42.5346 10.238 42.7784 10.3948L44.33 11.4333L45.8936 10.3948C46.1316 10.2359 46.391 10.1104 46.6634 10.0218V6.99996ZM34.9967 6.99996H39.6633V10.0218C39.3909 10.1104 39.1316 10.2359 38.8935 10.3948L37.3299 11.4333L35.7783 10.3948C35.5346 10.238 35.2721 10.1125 34.9966 10.0218L34.9967 6.99996ZM32.6633 6.99996H27.9966L27.9965 10.0218C28.2721 10.1125 28.5346 10.238 28.7783 10.3948L30.3299 11.4333L31.8935 10.3948C32.1315 10.2359 32.3909 10.1104 32.6633 10.0218V6.99996ZM20.9966 6.99996H25.6633V10.0218C25.3909 10.1104 25.1315 10.2359 24.8935 10.3948L23.3299 11.4333L21.7663 10.3948C21.5272 10.2343 21.2684 10.1052 20.9965 10.0099L20.9966 6.99996ZM13.9966 35.6667H25.6633V16.4146C25.6612 16.024 25.4643 15.661 25.1383 15.4464L20.4716 12.3313C20.0847 12.0668 19.5753 12.0668 19.1883 12.3313L14.5216 15.4464C14.1956 15.661 13.9987 16.024 13.9966 16.4146V35.6667ZM39.6633 35.6667H34.9967V25.6667H32.6633V35.6667H27.9966V16.4147C27.9987 15.2412 27.4112 14.1458 26.433 13.498L25.4299 12.8329L26.1883 12.3313C26.582 12.0745 27.0898 12.0745 27.483 12.3313L32.1497 15.4464C32.4679 15.6667 32.6591 16.0276 32.6633 16.4146V23.3329H34.9966V16.4146C35.0008 15.2469 34.4174 14.1553 33.445 13.5094L32.4299 12.8328L33.1882 12.3313C33.582 12.0745 34.0898 12.0745 34.483 12.3313L39.1497 15.4464C39.4679 15.6667 39.6591 16.0276 39.6632 16.4146L39.6633 35.6667ZM41.9967 35.6667H46.6634L46.6633 16.4146C46.6591 16.0277 46.468 15.6667 46.1498 15.4464L41.4831 12.3313C41.0899 12.0745 40.582 12.0745 40.1883 12.3313L39.43 12.8329L40.4451 13.5094C41.4175 14.1553 42.0008 15.2469 41.9967 16.4147V35.6667ZM60.15 15.4466C60.4683 15.667 60.6594 16.0279 60.6636 16.4149V35.6669H55.9969V31.0003H53.6636V35.6669H48.9969V16.4149C49.0011 15.2472 48.4177 14.1555 47.4453 13.5097L46.4302 12.8331L47.1885 12.3315C47.5823 12.0748 48.0901 12.0748 48.4833 12.3315L53.15 15.4466C53.4682 15.6669 53.6594 16.0279 53.6635 16.4149V28.6669H55.9969V16.4149C56.001 15.2471 55.4177 14.1555 54.4453 13.5096L53.4302 12.8331L54.1885 12.3315C54.5781 12.0747 55.0822 12.0747 55.4718 12.3315L60.15 15.4466ZM69.6637 2.33329V42.0001H71.997V2.33329H69.6637ZM16.33 18.6667H18.6633V31H16.33V18.6667ZM24.4966 16.3333H20.9966V18.6667H24.4966V16.3333Z" fill="#A5FF14"/>
</svg>

<svg width="75" height="49" fill="none" xmlns="http://www.w3.org/2000/svg"><path fill-rule="evenodd" clip-rule="evenodd" d="M73.645.685c.437.437.683 1.03.685 1.648V42a2.342 2.342 0 01-2.333 2.333v2.334h2.333V49h-7v-2.333h2.333v-2.334A2.342 2.342 0 0167.33 42V7H55.997v3.022c.275.09.538.216.781.373l4.667 3.115a3.473 3.473 0 011.552 2.905v19.252A2.342 2.342 0 0160.663 38H13.997a2.342 2.342 0 01-2.334-2.333V16.415a3.493 3.493 0 011.564-2.917l4.667-3.103a3.4 3.4 0 01.77-.385V7H7.33v35a2.342 2.342 0 01-2.333 2.333v2.334H7.33V49h-7v-2.333h2.333v-2.334A2.342 2.342 0 01.33 42V2.333A2.342 2.342 0 012.663 0h2.334A2.342 2.342 0 017.33 2.333v2.334h60V2.333A2.342 2.342 0 0169.664 0h2.333c.618.002 1.21.248 1.648.685zM2.663 42h2.334V2.333H2.663V42zM48.997 7h4.666v3.022a3.131 3.131 0 00-.77.373l-1.563 1.038-1.552-1.038a3.426 3.426 0 00-.781-.373V7zm-2.334 0h-4.666v3.022c.275.09.538.216.781.373l1.552 1.038 1.564-1.038c.238-.16.497-.285.77-.373V7zM34.997 7h4.666v3.022a3.133 3.133 0 00-.77.373l-1.563 1.038-1.552-1.038a3.423 3.423 0 00-.781-.373V7zm-2.334 0h-4.666v3.022c.275.09.538.216.781.373l1.552 1.038 1.564-1.038c.238-.16.497-.285.77-.373V7zM20.997 7h4.666v3.022a3.131 3.131 0 00-.77.373l-1.563 1.038-1.564-1.038a3.403 3.403 0 00-.77-.385V7zm-7 28.667h11.666V16.415a1.166 1.166 0 00-.525-.969l-4.666-3.115a1.137 1.137 0 00-1.284 0l-4.666 3.115a1.166 1.166 0 00-.525.969v19.252zm25.666 0h-4.666v-10h-2.334v10h-4.666V16.415a3.49 3.49 0 00-1.564-2.917l-1.003-.665.758-.502a1.184 1.184 0 011.295 0l4.667 3.115c.318.22.51.582.513.969v6.918h2.334v-6.918a3.473 3.473 0 00-1.552-2.906l-1.015-.676.758-.502a1.184 1.184 0 011.295 0l4.667 3.115c.318.22.51.582.513.969v19.252zm2.334 0h4.666V16.415a1.193 1.193 0 00-.513-.969l-4.667-3.115a1.184 1.184 0 00-1.295 0l-.758.502 1.015.676a3.474 3.474 0 011.552 2.906v19.252zm18.153-20.22c.318.22.51.58.514.968v19.252h-4.667V31h-2.333v4.667h-4.667V16.415a3.473 3.473 0 00-1.552-2.905l-1.015-.677.758-.502a1.185 1.185 0 011.295 0l4.667 3.116c.318.22.51.58.514.968v12.252h2.333V16.415a3.474 3.474 0 00-1.552-2.905l-1.015-.677.758-.502a1.17 1.17 0 011.284 0l4.678 3.116zm9.514-13.114V42h2.333V2.333h-2.333zM16.33 18.667h2.333V31H16.33V18.667zm8.167-2.334h-3.5v2.334h3.5v-2.334z" fill="#A5FF14"/></svg>
